icons/outline/circle-dashed-number-8.svg

<!--
tags: [eight, octet, eighth, octa, octonary, octuple, eightfold, eightsome, octad, octagon]
category: Numbers
version: "2.33"
unicode: "fc73"
-->
<svg
  xmlns="http://www.w3.org/2000/svg"
  width="24"
  height="24"
  viewBox="0 0 24 24"
  fill="none"
  stroke="currentColor"
  stroke-width="2"
  stroke-linecap="round"
  stroke-linejoin="round"
>
  <path d="M8.56 3.69a9 9 0 0 0 -2.92 1.95m-1.95 2.92a9 9 0 0 0 -.69 3.44m.69 3.44a9 9 0 0 0 1.95 2.92m2.92 1.95a9 9 0 0 0 3.44 .69m3.44 -.69a9 9 0 0 0 2.92 -1.95m1.95 -2.92a9 9 0 0 0 .69 -3.44m-.69 -3.44a9 9 0 0 0 -1.95 -2.92m-2.92 -1.95a9 9 0 0 0 -3.44 -.69m0 9h-1a1 1 0 0 1 -1 -1v-2a1 1 0 0 1 1 -1h2a1 1 0 0 1 1 1v2a1 1 0 0 1 -1 1h-2a1 1 0 0 0 -1 1v2a1 1 0 0 0 1 1h2a1 1 0 0 0 1 -1v-2a1 1 0 0 0 -1 -1" />
</svg>

<!--
tags: [eight, octet, eighth, octa, octonary, octuple, eightfold, eightsome, octad, octagon]
category: Numbers
version: "2.33"
unicode: "fc73"
-->
<svg
  xmlns="http://www.w3.org/2000/svg"
  width="24"
  height="24"
  viewBox="0 0 24 24"
  fill="none"
  stroke="currentColor"
  stroke-width="2"
  stroke-linecap="round"
  stroke-linejoin="round"
>
    <path d="M8.56 3.69a9 9 0 0 0 -2.92 1.95M3.69 8.56a9 9 0 0 0 -.69 3.44M3.69 15.44a9 9 0 0 0 1.95 2.92M8.56 20.31a9 9 0 0 0 3.44 .69M15.44 20.31a9 9 0 0 0 2.92 -1.95M20.31 15.44a9 9 0 0 0 .69 -3.44M20.31 8.56a9 9 0 0 0 -1.95 -2.92M15.44 3.69a9 9 0 0 0 -3.44 -.69M12 12h-1a1 1 0 0 1 -1 -1v-2a1 1 0 0 1 1 -1h2a1 1 0 0 1 1 1v2a1 1 0 0 1 -1 1h-2a1 1 0 0 0 -1 1v2a1 1 0 0 0 1 1h2a1 1 0 0 0 1 -1v-2a1 1 0 0 0 -1 -1" />
</svg>
